packages/icons/svg/Outline/inbox.svg

<svg fill="none" height="24" viewBox="0 0 24 24" width="24" xmlns="http://www.w3.org/2000/svg"><path clip-rule="evenodd" d="m18 18.9999h-11.99998c-.551 0-1-.448-1-1v-5h2v3c0 .553.448 1 1 1h7.99998c.552 0 1-.447 1-1v-3h2v5c0 .552-.449 1-1 1zm-9.65799-13.44683c.17-.341.513-.553.894-.553h5.52799c.381 0 .724.212.894.553l2.724 5.44703h-2.382c-.552 0-1 .447-1 1v3h-5.99999v-3c0-.553-.448-1-1-1h-2.382zm12.44699 5.78893-3.342-6.684c-.511-1.022-1.539-1.658-2.683-1.658h-5.528c-1.144 0-2.172.636-2.683 1.658l-3.342 6.684c-.138.276-.211.586-.211.894v5.764c0 1.654 1.346 3 3 3h12c1.654 0 3-1.346 3-3v-5.764c0-.308-.073-.618-.211-.894z" fill="#6b7280" fill-rule="evenodd"/></svg>

<svg width="24" height="24" viewBox="0 0 24 24" fill="none" xmlns="http://www.w3.org/2000/svg">
<g id="Icon/Outline/inbox">
<path id="Mask" fill-rule="evenodd" clip-rule="evenodd" d="M18 19H6C5.449 19 5 18.552 5 18V13H7V16C7 16.553 7.448 17 8 17H16C16.552 17 17 16.553 17 16V13H19V18C19 18.552 18.551 19 18 19ZM8.342 5.553C8.512 5.212 8.855 5 9.236 5H14.764C15.145 5 15.488 5.212 15.658 5.553L18.382 11H16C15.448 11 15 11.447 15 12V15H9V12C9 11.447 8.552 11 8 11H5.618L8.342 5.553ZM20.789 11.342L17.447 4.658C16.936 3.636 15.908 3 14.764 3H9.236C8.092 3 7.064 3.636 6.553 4.658L3.211 11.342C3.073 11.618 3 11.928 3 12.236V18C3 19.654 4.346 21 6 21H18C19.654 21 21 19.654 21 18V12.236C21 11.928 20.927 11.618 20.789 11.342Z" fill="#000000"/>
</g>
</svg>
